X:1
T:Walking in the Good Old Way
T:John Robson Sweney
T:Walking in the Good Old Way
T:Public Domain
T:Public Domain
C:John Robson Sweney
Z:Public Domain
%%score ( 1 2 ) ( 3 4 )
L:1/8
M:4/4
K:G
V:1 treble 
V:2 treble 
V:3 bass 
V:4 bass 
V:1
 [B,D][B,D] | [DG]2 [DG]2 [GB]2 [DA][DG] | [EA]2 E2 [EA]4 | [DF][DF] [Fd]>[Fe] [Fd]2 [Fc]2 | %4
w: 1.~We are|trav- eling on with our|staff in hand,|ing in the good old way;|
w: 2.~We are|travel- ing on through a|world of sin,|ing in the good old way;|
w: 3.~We are|travel- ing on in the|Mas- ter’s name,|ing in the good old way;|
w: 4.~We are|travel- ing on to the|roll- ing tide,|ing in the good old way;|
 [GB]6 DD | [DG]2 [DG]2 [GB]2 [DA][DG] | [EA]2 E2 [EA]4 | [DF][DF][Fd][Fc] [FB]2 [FA]2 | [DG]6 || %9
w: We are pil-|for the heaven- ly land,|Walk- ing in|the good old way. * *||
w: Though our foes|we have peace with- in,|Walk- ing in|the good old way. * *||
w: And we sing|with a loud ac- claim,|Walk- ing in|the good old way. * *||
w: But we trust|who is still our guide,|Walk- ing in|the good old way. * *||
"^Refrain" [Gd][Gd][G^c][Gd] [Ge][Gd][GB][DA] | [DG]2 [DB]2 [B,D]4 | %11
w: ||
w: ||
w: ||
w: ||
 [CE][CE][CE][CE] [Ec][EB][EA][EG] | [DF]2 [^CG]2 [=CA]4 | [Gd][Gd][G^c][Gd] [Ge][Gd][GB][DG] | %14
w: |||
w: |||
w: |||
w: |||
 [EA]2 [CE]2 [Ec]4 | [DB]2 [Gd][Gc] [GB]2 [FA]2 | [DG]6 |] %17
w: |||
w: |||
w: |||
w: |||
V:2
 x2 | x8 | x2 E2 x4 | x8 | x6 DD | x8 | x8 | x8 | x6 || x8 | x8 | x8 | x8 | x8 | x8 | x8 | x6 |] %17
w: ||Walk-||grims bound|||||||||||||
w: ||Walk-||are strong|||||||||||||
w: ||Walk-||His praise|||||||||||||
w: ||Walk-||in Him|||||||||||||
V:3
 G,G, | [G,B,]2 [G,B,]2 [G,D]2 [G,C][G,B,] | [C,C]2 [C,C]2 [C,C]4 | %3
w: ~ ~|~ ~ ~ ~ ~|~ ~ ~|
 [D,A,][D,A,] [D,A,]>[D,A,] [D,A,]2 [D,D]2 | [G,D]6 [G,B,][G,B,] | %5
w: ~ ~ ~ ~ ~ ~|~ ~ ~|
 [G,B,]2 [G,B,]2 [G,D]2 [G,C][G,B,] | [C,C]2 [C,C]2 [C,C]4 | %7
w: ~ ~ ~ ~ ~|~ ~ ~|
 [D,A,][D,A,][D,A,][D,A,] [D,D]2 [D,C]2 | [G,,B,]6 || %9
w: ~ ~ ~ ~ ~ Walk-|ing|
 [G,B,][G,B,][G,^A,][G,B,] [G,C][G,B,][G,D][G,C] | [G,B,]2 [G,,G,]2 [G,,G,]4 | %11
w: in the bless- ed- ness of love un-|told, Travel- ing|
 [C,G,][C,G,][C,G,][C,G,] [C,G,][C,G,][C,G,][C,A,] | [D,A,]2 [E,A,]2 [F,A,]4 | %13
w: to a count- ry that will ne’er grow|old, Je- sus|
 [G,B,][G,B,][G,^A,][G,B,] [G,C][G,B,][G,D][G,B,] | [C,C]2 [C,G,]2 [C,G,]4 | %15
w: our Re- deem- er we shall there be-|hold, Home in|
 [D,G,]2 [D,B,][D,A,] [D,D]2 [D,C]2 | [G,,B,]6 |] %17
w: the realms of day. *||
V:4
 G,G, | x8 | x8 | x8 | x8 | x8 | x8 | x8 | x6 || x8 | x8 | x8 | x8 | x8 | x8 | x8 | x6 |] %17
w: ~ ~|||||||||||||||||

